let twenty_chords p = select p [n "[-1, 1, 3, 6, 10]", n "[-2, 1, 3, 5, 8]", n "[-3, -1, 1, 3, 8]", n "[-4, -1, 1, 3, 6]", n "[-6, -2, 1, 3, 5]", n "[-7, -4, -2, 0, 3]", n "[-6, -4, -1, 3, 6]", n "[-4, -2, 1, 3, 6]", n "[-4, 0, 1, 5]", n "[-5, -2, 0, 3, 5]", n "[-2, -1, 1, 3, 6]", n "[-4, -2, 1, 3, 5]", n "[-3, -1, 1, 4, 8]", n "[0, 3, 7, 8, 10]", n "[1, 5, 8, 10, 17]", n "[3, 5, 7, 8, 12]", n "[3, 4, 8, 11, 15]", n "[1, 3, 6, 10, 13, 15]", n "[1, 3, 5, 8, 12, 15]", n "[0, 2, 3, 7, 10, 15]"]

d1 $ struct "t(9,16)" $ slow 20 $ twenty_chords ("0 .. 19" |/ 20) # m 1
