setcps(124/120/2)



-- 'LOSING IT' in 6 lines of code

-- drums
d1 $ drumz $ n "[0 10 [0,3] 10]*2" # m 1 # amp 1 

-- bass
d2 $ (# m 3) $ groove 2 "0 0.005" $ (|- n 36) $ slow 2 $
      struct "t(3,8) [t(3,8), [~!7 t]]@1 [t!4] t(3,8)" $
      n "7 7 [8 7 7 14] 7" # legato "1.8 0.5 1.4" # amp "1 0.2 1"

-- synth
d3 $ (|- n 12) $ slow 2 $
      n "[7 ~ ~ 7 ~ ~ 7 8]*2 [7 7 [7 7] 8 [7 ~ ~ 7@5]@4 ]" # m 2









d3 $ (|- n 12) $  n "[7 ~ ~ 7 ~ ~ 7 8]*2" # m 2
