
d1 $ drumz $ n "0 8 10 8 [0, 3] 8 10 8" # m 1


d2 $ (|+ n 5) $ struct "t*16" $ slow 2 $ cat [nT "c1" 8  "10 0 3 10 0 3 7 0",
                         (|- n 5) $ nT "c1" 8  "10 0 3 10 0 3 7 0",
                         (|- n 7 ) $ nT "c2" 8 "14 0 3 10 0 3 7 0", 
                         (|- n 5) $ nT "c1" 8  "10 0 3 10 0 3 7 0"] # m 2
