d1 $ (|- n 12) $ ( (slow 4 $ range "-0.5" 0.5 sine) <~) $ phrase_chord "0 2 4 5 7 9 11" "2 4 6 8" (round <$> segment 16 ( range 1 9 $ sine)) # m 1


d1 $ phrase_chord "0 2 4 5 7 9 11" (" 2 4 6 8" |+ 4 )  (round <$> segment 16 ( range 1 9 $ sine) |- 2) # m 1

d2 $ phrase_chord "0 2 4 5 7 9 11" ("2 4 6 8" |+ 4) (round <$> segment 16 ( range 1 9 $ sine) |- 2 ) # m 1

d1 $ (|- n 12) $  phrase_chord "0 2 4 5 7 9 11" "2 4 6 8" (round <$> segment 12 ( ( (slow 4 $ range "0" 0.125 sine) <~) $ range 1 9 $ sine)) # m 2

let pcc chh segAmt func = phrase_chord "0 2 4 5 7 9 11" chh (round <$> segment segAmt func) 

 let p1 = pcc "-5 0  4 5" 19 ( fast "1 1 1 2" $ slow "1 3.5 4 6" $ range 0 16 $ sine) # m 1

     p2 = pcc "-6 1  7 5" 7 ( fast "1 1 2 2" $ slow "3 2 2 6" $ (range "-2" 8 $ sine |+ 4)) # m 1


d1 $ ncat[(1,p1),(1,p2)]

d1 $ pcc "-6 1  7 5" 7 ( fast "1 1 2 2" $ slow "3 2 2 6" $ (range "-2" 8 $ sine |+ 4)) # m 1


-- ^^
d1 $ pcc "-1 3 5 7 9" "[16 18 16 12]/4" (fast 2 $
     range "[0 -1 -1 1]/4" 2 $ 
     "{0 2 3 3 2 1 2 3 4 5 5 4 3 5 4 6 6 7 5 4 3 4 3 1}%8" |-
     "[4 6 2 1 8 6 2 3]/8"|+ 4) # m "1 2 1 2 1 2 2 1" # amp "[0.5 0.4 0.4 0.3]*4"



