
let plg = toScale' 9 [0, 1, 2, 5, 6]

d1 $ (|- n "30 35") $ slow 3 $ struct "{t(8,10)}%4" $ every "1.5 3" (fast 2) $   n ( plg ("12 13 14 17 18 21 22 23" )) # m 1

d1 silence

d1 $ (|- n "30") $ slow 3 $ struct "{t(8,10)}%4" $ every "1.5 3" (fast 2) $   n ( plg ("12 [13 14 17 18 21 22 23" )) # m 1

d2 $  (|- n "30") $ (|+ n 18) $ struct "t(3, <8, 7)" $  n (plg ("0 2 3 8(3,8)"  +| "[12,  14, 15 ]")) # m 2

d3 $ (|- n 24 )$ n "0 0 0 0" # m 3

toScale' 9 

hush
